X:1
T:Pungenti dardi
T:Pungenti dardi
T:Ludovico Bellanda Veronese
T:Source : Musische di L.Bellanda---Venetia---G.Vincenti--- 1607. Editor : André Vierendeels (27/06/15).
T:Notes : Original clefs : C4, F4, F4 Figures in BC are notated in original print Dotted brackets indicate black notes Original print  notated in 3/2
C:Ludovico Bellanda Veronese
%%score [ 1 2 ] 3
L:1/8
Q:1/4=75
M:3/4
K:C
V:1 treble-8 nm="Tenor" snm="T"
V:2 bass nm="Bassus" snm="B"
V:3 bass nm="BC" snm="BC"
V:1
 d2 B2 c2 | d4 d2 | G2 A2 B2 | c4 c2 | A2 A2 c2 | B3 A G2 | G2 A4 | G4 G2 | z2 c2 A2 | ^G4 G2- | %10
w: Pun- gen- ti|dar- di,|che si ga-|gliar- di,|fos- ti'au- ven-|ta- ti, da|gl'oc- chi'a-|ma- ti,|nel mio|mi- se-|
w: Non è gia|mor- te,|di quel- la|sor- te,|che torn' in|vi- ta, dol-|* gra-|di- ta,|che co-|si bel|
w: A tal, ch'o-|ma- i,|non son che|gua- i,|peg- gio che|mor- to, sen-|za con-|for- to,|e voi|fa- te|
 G2 ^G4 | A4 A2 | G3 G ^F2 | G2 G2 z2 | z6 | z6 | z4 B2 | e4 A2 | A4 G2 | G2 z2 z2 | z2 z2 B2 | %21
w: * ro|co- re,|on- de si|mo- re,|||per|vo- stra|cru- del-|ta,|per|
w: _ mo-|ri- re,|lie- ta gio-|i- te,|||sa-|ria per|tal bel-|ta,|sa-|
w: _ pa-|te- re,|di non ve-|de- te,|||tan-|t'e vo-|stra'im- pie-|ta,|tan-|
 e4 A2 | A4 G2 | G2 z2 z2 | z6 | z6 |] %26
w: vo- stra|cru- del-|ta,|||
w: ria per|tal bel-|ta.|||
w: t'e vo-|stra'im- pie-|ta.|||
V:2
 G,2 G,2 A,2 | G,4 G,2 | G,2 ^F,2 G,2 | C,4 C,2 | F,2 F,2 E,2 | G,3 F, E,2 | C,4 D,2 | G,,4 G,,2 | %8
w: Pun- gen- ti|dar- di,|che si ga-|gliar- di,|fos- ti'au- ven-|ta- ti, da|gl'oc- chi'a-|ma- ti,|
w: Non è gia|mor- te,|di quel- la|sor- te,|che torn' in|vi- ta, dol-|c' gra-|di- ta,|
w: A tal, ch'o-|ma- i,|non son che|gua- i,|peg- gio che|mor- to, sen-|za con-|for- to,|
 C,4 C,2 | E,4 E,2- | E,2 E,4 | A,,4 A,,2 | C,3 C, D,2 | G,,2 G,,2 z2 | z6 | z6 | z4 G,2 | %17
w: nel mio|mi- se-|* ro|co- re,|on- de si|mo- re,|||per|
w: che co-|si bel|_ mo-|ri- re,|lie- ta gio-|i- te,|||sa-|
w: e voi|fa- te|_ pa-|te- re,|di non ve-|de- te,|||tan-|
 C,4 C,2 | D,4 D,2 | G,,2 z2 z2 | z2 z2 G,2 | C,4 C,2 | D,4 D,2 | G,,2 z2 z2 | z6 | z6 |] %26
w: vo- stra|cru- del-|ta,|per|vo- stra|cru- del-|ta,|||
w: ria per|tal bel-|ta,|sa-|ria per|tal bel-|ta.|||
w: t'e vo-|stra'im- pie-|ta,|tan-|t'e vo-|stra'im- pie-|ta.|||
V:3
 G,2 G,2 A,2 | G,4 G,2 | G,2 ^F,2 G,2 | C,4 C,2 |"^6" F,2 F,2 E,2 | G,3 F, E,2 |"^#" C,4 D,2 | %7
 G,,4 G,,2 |"^6" C,4 C,2 |"^#""^#" E,4 E,2- |"^#" E,2 E,4 | A,,4 A,,2 |"^#" C,3 C, D,2 | %13
 G,,3 A,, B,,2 |"^#" C,2 D,2 E,2 | A,,2 C,2 D,2 | E,2 F,2 G,2 |"^6" C,4 C,2 |"^#" D,4 D,2 | %19
 G,,2 C,2 D,2 | E,2 F,2 G,2 | C,4 C,2 |"^#" D,4 D,2 | G,,2 B,,2 C,2 |"^#" E,4 D,2 | G,,6 |] %26

